src/assets/icons/food-frink,fancy,coffee.svg

<svg width="48" height="48" viewBox="0 0 48 48" fill="none" xmlns="http://www.w3.org/2000/svg">
<path opacity="0.4" d="M39.3368 16.4369C31.6646 10.4528 10.3353 10.5796 2.66316 16.5638C2.22478 16.9057 2 17.4437 2 17.9997L2 20.9997C2 31.4931 10.5066 39.9997 21 39.9997C31.4934 39.9997 40 31.4871 40 20.9937C40 19.6582 40 18.5661 40 17.8721C40 17.3161 39.7752 16.7789 39.3368 16.4369Z" fill="black"/>
<ellipse cx="20.95" cy="17.4903" rx="15.95" ry="4.49032" fill="black"/>
<path opacity="0.4" fill-rule="evenodd" clip-rule="evenodd" d="M38.7968 16.041C38.9837 16.17 39.164 16.302 39.3373 16.4372C39.7757 16.7791 40.0004 17.3163 40.0004 17.8723V20.6103C41.1445 21.297 41.9101 22.5497 41.9101 23.9811C41.9101 25.8946 40.542 27.4885 38.7307 27.8382C38.18 29.2643 37.4623 30.6074 36.6016 31.8434C37.0499 31.9215 37.511 31.9623 37.9816 31.9623C42.3895 31.9623 45.9628 28.389 45.9628 23.9811C45.9628 19.8484 42.8218 16.4493 38.7968 16.041Z" fill="black"/>
<path opacity="0.4" d="M19.6455 0.39757C13.2272 4.01985 20.6057 8.35876 19.8264 11.2877C19.7726 11.4898 20.0025 11.7614 20.1899 11.6683C25.8975 8.83249 19.3979 3.81678 20.0475 0.773215C20.0917 0.566002 19.83 0.293431 19.6455 0.39757Z" fill="black"/>
</svg>

<svg xmlns="http://www.w3.org/2000/svg" width="48" height="48" fill="none" viewBox="0 0 48 48">
  <path fill="#000" d="M39.337 16.437c-7.672-5.984-29.002-5.857-36.674.127C2.225 16.906 2 17.444 2 18v3c0 10.493 8.507 19 19 19s19-8.513 19-19.006v-3.122c0-.556-.225-1.093-.663-1.435z" opacity=".4"/>
  <ellipse cx="20.95" cy="17.49" fill="#000" rx="15.95" ry="4.49"/>
  <path fill="#000" fill-rule="evenodd" d="M38.797 16.041c.187.129.367.261.54.396.439.342.663.88.663 1.435v2.738a3.93 3.93 0 01-1.27 7.228 18.963 18.963 0 01-2.128 4.005 7.981 7.981 0 102.195-15.802z" clip-rule="evenodd" opacity=".4"/>
  <path fill="#000" d="M19.645.398c-6.418 3.622.96 7.96.181 10.89-.053.202.177.473.364.38 5.707-2.836-.792-7.851-.143-10.895.045-.207-.217-.48-.402-.375z" opacity=".4"/>
</svg>
